source/img/rates.svg

<?xml version="1.0" encoding="UTF-8" standalone="no"?>
<svg
   xmlns:dc="http://purl.org/dc/elements/1.1/"
   xmlns:cc="http://creativecommons.org/ns#"
   xmlns:rdf="http://www.w3.org/1999/02/22-rdf-syntax-ns#"
   xmlns:svg="http://www.w3.org/2000/svg"
   xmlns="http://www.w3.org/2000/svg"
   xmlns:sodipodi="http://sodipodi.sourceforge.net/DTD/sodipodi-0.dtd"
   xmlns:inkscape="http://www.inkscape.org/namespaces/inkscape"
   width="396pt"
   height="396pt"
   viewBox="0 0 396 396"
   version="1.1"
   id="svg28"
   sodipodi:docname="rates2.svg"
   inkscape:version="0.92.4 (5da689c313, 2019-01-14)">
  <metadata
     id="metadata34">
    <rdf:RDF>
      <cc:Work
         rdf:about="">
        <dc:format>image/svg+xml</dc:format>
        <dc:type
           rdf:resource="http://purl.org/dc/dcmitype/StillImage" />
        <dc:title></dc:title>
      </cc:Work>
    </rdf:RDF>
  </metadata>
  <defs
     id="defs32" />
  <sodipodi:namedview
     pagecolor="#ffffff"
     bordercolor="#666666"
     borderopacity="1"
     objecttolerance="10"
     gridtolerance="10"
     guidetolerance="10"
     inkscape:pageopacity="0"
     inkscape:pageshadow="2"
     inkscape:window-width="3747"
     inkscape:window-height="2126"
     id="namedview30"
     showgrid="false"
     inkscape:lockguides="false"
     inkscape:zoom="2.8284271"
     inkscape:cx="470.35565"
     inkscape:cy="318.68374"
     inkscape:window-x="82"
     inkscape:window-y="-11"
     inkscape:window-maximized="1"
     inkscape:current-layer="svg28" />
  <circle
     style="fill:#ffffff;fill-opacity:1;stroke:none;stroke-width:27.11489487;stroke-miterlimit:4;stroke-dasharray:none;stroke-opacity:1"
     id="path4559"
     cx="198"
     cy="197.99998"
     r="198" />
  <circle
     style="fill:#ffd74b;fill-opacity:1;stroke:none;stroke-width:3.375;stroke-miterlimit:4;stroke-dasharray:none;stroke-opacity:1"
     id="path4557"
     cx="328.98676"
     cy="67.040253"
     r="67.012497" />
  <path
     d="m 314.39,41.06 c -0.05,-1.98 1.68,-3.61 3.66,-3.47 l 17.98,-0.02 c 5.09,-0.03 10.26,1.91 13.77,5.66 5.44,5.76 6.59,15.15 2.49,21.97 -3.27,5.67 -9.76,9.22 -16.29,8.99 l -15.375,0.04887 v 8.240787 l 20.85498,0.08081 c 3.09,1.02 2.68,5.624533 -0.41,6.314533 H 320.625 c -0.01,2.7 1.20868,7.479164 -2.52132,7.699164 -4.04,0.1 -3.80657,-4.926055 -3.75993,-7.699164 -2.79527,-0.01984 -7.10375,0.845 -7.30375,-2.885 -0.56,-4.2 4.48375,-3.610468 7.30375,-3.550468 V 41.06 M 320.625,67.5 h 14.38189 C 340.21824,67.748499 345.74,64.36 347.25,59.21 349.27,52.9 344.71,45.125 338,44.475 h -17.375 z"
     id="path16"
     inkscape:connector-curvature="0"
     sodipodi:nodetypes="cccccccccccccccccccccc"
     style="display:inline;fill:#161c35;fill-opacity:1" />
  <g
     id="g26"
     style="display:inline;fill:#edeff6">
    <path
       d="m 136.34,116.49 c 2.17,-0.47 4.41,-0.49 6.62,-0.49 19,0.1 37.99,-0.03 56.99,0.05 6.88,-0.01 13.51,4.34 16.3,10.62 2.29,4.44 1.68,9.57 1.72,14.39 0.01,41.65 0.06,83.3 0.04,124.95 -0.11,7.36 -5.13,14.48 -12.18,16.78 -4.13,1.43 -8.56,1.17 -12.86,1.19 -17.67,-0.06 -35.34,0.04 -53.01,-0.06 -9.76,-0.17 -18.44,-9.09 -17.94,-18.92 0.08,-43.67 -0.05,-87.34 0.05,-131.02 -0.04,-8.18 6.45,-15.62 14.27,-17.49 m 2.96,11.89 c -4.2,1.04 -5.4,5.86 -5.3,9.64 0.09,41.33 0.01,82.66 0.03,123.99 0.06,3.09 0.41,6.9 3.33,8.68 1.63,1.19 3.71,1.28 5.65,1.3 18.32,-0.08 36.64,0.01 54.96,-0.04 2.85,0.11 5.86,-1.22 7.14,-3.9 1.45,-3.48 0.89,-7.44 0.78,-11.12 -0.27,-4.64 -4.16,-8.61 -8.83,-8.83 -7.68,-0.32 -15.38,-0.01 -23.07,-0.13 -9.43,0.42 -17.28,-8.79 -15.99,-18.02 0.06,-16.63 0.01,-33.27 0.01,-49.91 -0.29,-8.2 6.74,-15.84 14.99,-15.97 7.7,-0.2 15.4,0.08 23.1,-0.08 3.01,-0.14 6.38,-1.07 8.09,-3.76 2.46,-3.59 1.71,-8.13 1.81,-12.22 -0.12,-4.65 0.26,-9.32 -0.19,-13.96 -0.83,-5.73 -8.97,-8.07 -13.1,-4.35 -2.27,3.11 -2.74,7.56 -6.01,9.88 -6.83,1.05 -13.83,0.13 -20.72,0.45 -4.22,-0.12 -8.5,0.45 -12.66,-0.35 -3.57,-2.12 -4.17,-6.59 -6.15,-9.9 -1.96,-2.14 -5.27,-2.04 -7.87,-1.4 m 43.26,63.18 c -1.87,3.76 1.16,8.55 5.39,8.34 5.76,-0.14 11.87,0.94 17.43,-0.57 1.28,-3.36 0.83,-7.33 0.14,-10.81 -4.76,-1.08 -9.72,-0.31 -14.56,-0.54 -3.05,-0.06 -7.31,0.03 -8.4,3.58 z"
       id="path20"
       inkscape:connector-curvature="0" />
    <path
       d="m 232.3,164.36 c 13.85,-0.82 27.81,-0.05 41.7,-0.34 8.53,-0.32 16.41,7.42 15.98,16 -0.05,17.34 -0.04,34.68 -0.02,52.02 0.25,8.11 -6.73,15.74 -14.9,15.88 -13.34,0.16 -26.68,0.02 -40.01,0.02 -2.07,0.19 -4.53,-0.77 -4.89,-3.05 -0.26,-2.84 -1.07,-7 2.14,-8.48 3.16,-0.83 6.49,-0.3 9.72,-0.4 10.34,-0.08 20.68,0.09 31.02,-0.05 2.73,0.18 5.06,-2.18 4.87,-4.91 0.2,-8.01 -0.02,-16.05 -0.04,-24.07 0.1,-3.72 -3.26,-6.78 -6.87,-6.9 -12.64,-0.29 -25.32,0.2 -37.96,-0.22 -3.62,-0.69 -3.28,-5.18 -3.02,-7.96 -0.12,-2.17 1.89,-3.93 4,-3.8 13.01,-0.34 26.03,0.13 39.04,-0.14 6.81,0.26 6.76,-12.36 -0.12,-11.92 -12.67,-0.11 -25.35,0.04 -38.02,-0.04 -2.42,0.31 -4.99,-1.41 -4.91,-4.01 -0.1,-2.63 -0.58,-6.25 2.29,-7.63 z"
       id="path22"
       inkscape:connector-curvature="0" />
    <path
       d="m 247.31,212.33 c 2.77,-1.07 5.57,1.32 8.34,0.31 1.65,-0.31 3.38,-0.99 5.04,-0.32 4.47,1.24 5.58,8.43 1.34,10.69 -2.6,1.95 -5.77,-0.03 -8.66,0.45 -2.85,0.19 -6.64,1.66 -8.59,-1.26 -3,-3.04 -1.6,-8.69 2.53,-9.87 z"
       id="path24"
       inkscape:connector-curvature="0" />
  </g>
</svg>

<?xml version="1.0" encoding="UTF-8" ?>
<!DOCTYPE svg PUBLIC "-//W3C//DTD SVG 1.1//EN" "http://www.w3.org/Graphics/SVG/1.1/DTD/svg11.dtd">
<svg width="396pt" height="396pt" viewBox="0 0 396 396" version="1.1" xmlns="http://www.w3.org/2000/svg">
<g fill="#fdfdfe">
<path d="M 195.22 0.00 L 201.37 0.00 C 229.26 0.56 257.08 6.80 282.29 18.83 C 272.30 28.45 265.44 41.26 263.05 54.93 C 260.05 71.52 263.36 89.23 272.56 103.41 C 282.21 118.58 298.29 129.42 315.96 132.75 C 337.88 137.23 361.84 129.98 377.26 113.69 C 389.13 139.16 395.64 167.10 396.00 195.21 L 396.00 200.82 C 395.55 234.62 386.28 268.25 369.24 297.46 C 344.81 339.66 304.31 372.25 257.75 386.82 C 239.33 392.70 220.03 395.64 200.71 396.00 L 192.63 396.00 C 159.81 394.96 127.16 386.03 98.82 369.35 C 63.43 349.02 34.76 317.31 17.83 280.19 C 6.79 256.17 0.87 229.92 0.00 203.52 L 0.00 195.21 C 0.40 170.67 5.21 146.16 14.56 123.45 C 29.93 85.28 57.71 52.32 92.52 30.42 C 123.08 11.05 159.05 0.48 195.22 0.00 M 136.34 116.49 C 128.52 118.36 122.03 125.80 122.07 133.98 C 121.97 177.66 122.10 221.33 122.02 265.00 C 121.52 274.83 130.20 283.75 139.96 283.92 C 157.63 284.02 175.30 283.92 192.97 283.98 C 197.27 283.96 201.70 284.22 205.83 282.79 C 212.88 280.49 217.90 273.37 218.01 266.01 C 218.03 224.36 217.98 182.71 217.97 141.06 C 217.93 136.24 218.54 131.11 216.25 126.67 C 213.46 120.39 206.83 116.04 199.95 116.05 C 180.95 115.97 161.96 116.10 142.96 116.00 C 140.75 116.00 138.51 116.02 136.34 116.49 M 232.30 164.36 C 229.43 165.74 229.91 169.36 230.01 171.99 C 229.93 174.59 232.50 176.31 234.92 176.00 C 247.59 176.08 260.27 175.93 272.94 176.04 C 279.82 175.60 279.87 188.22 273.06 187.96 C 260.05 188.23 247.03 187.76 234.02 188.10 C 231.91 187.97 229.90 189.73 230.02 191.90 C 229.76 194.68 229.42 199.17 233.04 199.86 C 245.68 200.28 258.36 199.79 271.00 200.08 C 274.61 200.20 277.97 203.26 277.87 206.98 C 277.89 215.00 278.11 223.04 277.91 231.05 C 278.10 233.78 275.77 236.14 273.04 235.96 C 262.70 236.10 252.36 235.93 242.02 236.01 C 238.79 236.11 235.46 235.58 232.30 236.41 C 229.09 237.89 229.90 242.05 230.16 244.89 C 230.52 247.17 232.98 248.13 235.05 247.94 C 248.38 247.94 261.72 248.08 275.06 247.92 C 283.23 247.78 290.21 240.15 289.96 232.04 C 289.94 214.70 289.93 197.36 289.98 180.02 C 290.41 171.44 282.53 163.70 274.00 164.02 C 260.11 164.31 246.15 163.54 232.30 164.36 M 247.31 212.33 C 243.18 213.51 241.78 219.16 244.78 222.20 C 246.73 225.12 250.52 223.65 253.37 223.46 C 256.26 222.98 259.43 224.96 262.03 223.01 C 266.27 220.75 265.16 213.56 260.69 212.32 C 259.03 211.65 257.30 212.33 255.65 212.64 C 252.88 213.65 250.08 211.26 247.31 212.33 Z" />
<path d="M 139.30 128.38 C 141.90 127.74 145.21 127.64 147.17 129.78 C 149.15 133.09 149.75 137.56 153.32 139.68 C 157.48 140.48 161.76 139.91 165.98 140.03 C 172.87 139.71 179.87 140.63 186.70 139.58 C 189.97 137.26 190.44 132.81 192.71 129.70 C 196.84 125.98 204.98 128.32 205.81 134.05 C 206.26 138.69 205.88 143.36 206.00 148.01 C 205.90 152.10 206.65 156.64 204.19 160.23 C 202.48 162.92 199.11 163.85 196.10 163.99 C 188.40 164.15 180.70 163.87 173.00 164.07 C 164.75 164.20 157.72 171.84 158.01 180.04 C 158.01 196.68 158.06 213.32 158.00 229.95 C 156.71 239.18 164.56 248.39 173.99 247.97 C 181.68 248.09 189.38 247.78 197.06 248.10 C 201.73 248.32 205.62 252.29 205.89 256.93 C 206.00 260.61 206.56 264.57 205.11 268.05 C 203.83 270.73 200.82 272.06 197.97 271.95 C 179.65 272.00 161.33 271.91 143.01 271.99 C 141.07 271.97 138.99 271.88 137.36 270.69 C 134.44 268.91 134.09 265.10 134.03 262.01 C 134.01 220.68 134.09 179.35 134.00 138.02 C 133.90 134.24 135.10 129.42 139.30 128.38 Z" />
<path d="M 182.56 191.56 C 183.65 188.01 187.91 187.92 190.96 187.98 C 195.80 188.21 200.76 187.44 205.52 188.52 C 206.21 192.00 206.66 195.97 205.38 199.33 C 199.82 200.84 193.71 199.76 187.95 199.90 C 183.72 200.11 180.69 195.32 182.56 191.56 Z" />
</g>
<g fill="#ffd74b">
<path d="M 325.55 0.00 L 332.29 0.00 C 349.42 1.03 366.19 8.46 377.92 21.08 C 388.63 32.28 394.88 47.35 396.00 62.75 L 396.00 70.50 C 395.11 86.52 388.51 102.21 377.26 113.69 C 361.84 129.98 337.88 137.23 315.96 132.75 C 298.29 129.42 282.21 118.58 272.56 103.41 C 263.36 89.23 260.05 71.52 263.05 54.93 C 265.44 41.26 272.30 28.45 282.29 18.83 C 293.84 7.59 309.52 1.01 325.55 0.00 M 314.39 41.06 C 314.11 54.71 314.57 68.39 314.16 82.03 C 311.34 81.97 306.48 81.79 307.04 85.99 C 307.24 89.72 311.61 88.83 314.13 89.23 C 314.28 91.99 313.96 96.60 318.00 96.50 C 321.73 96.28 321.45 92.01 321.46 89.31 C 327.94 88.60 334.55 89.25 341.07 88.94 C 344.16 88.25 344.57 83.42 341.48 82.40 C 334.87 81.64 327.95 82.72 321.42 81.76 C 321.37 79.32 321.28 76.87 321.47 74.44 C 326.28 73.87 331.16 74.40 336.00 74.19 C 342.53 74.42 349.02 70.87 352.29 65.20 C 356.39 58.38 355.24 48.99 349.80 43.23 C 346.29 39.48 341.12 37.54 336.03 37.57 C 330.04 37.58 324.04 37.53 318.05 37.59 C 316.07 37.45 314.34 39.08 314.39 41.06 Z" />
<path d="M 321.34 46.04 C 321.49 45.69 321.78 44.98 321.93 44.63 C 327.28 44.55 332.65 44.45 338.00 44.68 C 344.71 45.33 349.27 52.90 347.25 59.21 C 345.74 64.36 340.31 67.74 335.02 67.19 C 330.56 66.83 325.66 67.92 321.47 66.62 C 321.07 59.78 321.54 52.90 321.34 46.04 Z" />
</g>
<g fill="#161c35">
<path d="M 314.39 41.06 C 314.34 39.08 316.07 37.45 318.05 37.59 C 324.04 37.53 330.04 37.58 336.03 37.57 C 341.12 37.54 346.29 39.48 349.80 43.23 C 355.24 48.99 356.39 58.38 352.29 65.20 C 349.02 70.87 342.53 74.42 336.00 74.19 C 331.16 74.40 326.28 73.87 321.47 74.44 C 321.28 76.87 321.37 79.32 321.42 81.76 C 327.95 82.72 334.87 81.64 341.48 82.40 C 344.57 83.42 344.16 88.25 341.07 88.94 C 334.55 89.25 327.94 88.60 321.46 89.31 C 321.45 92.01 321.73 96.28 318.00 96.50 C 313.96 96.60 314.28 91.99 314.13 89.23 C 311.61 88.83 307.24 89.72 307.04 85.99 C 306.48 81.79 311.34 81.97 314.16 82.03 C 314.57 68.39 314.11 54.71 314.39 41.06 M 321.34 46.04 C 321.54 52.90 321.07 59.78 321.47 66.62 C 325.66 67.92 330.56 66.83 335.02 67.19 C 340.31 67.74 345.74 64.36 347.25 59.21 C 349.27 52.90 344.71 45.33 338.00 44.68 C 332.65 44.45 327.28 44.55 321.93 44.63 C 321.78 44.98 321.49 45.69 321.34 46.04 Z" />
</g>
<g fill="#edeff6">
<path d="M 136.34 116.49 C 138.51 116.02 140.75 116.00 142.96 116.00 C 161.96 116.10 180.95 115.97 199.95 116.05 C 206.83 116.04 213.46 120.39 216.25 126.67 C 218.54 131.11 217.93 136.24 217.97 141.06 C 217.98 182.71 218.03 224.36 218.01 266.01 C 217.90 273.37 212.88 280.49 205.83 282.79 C 201.70 284.22 197.27 283.96 192.97 283.98 C 175.30 283.92 157.63 284.02 139.96 283.92 C 130.20 283.75 121.52 274.83 122.02 265.00 C 122.10 221.33 121.97 177.66 122.07 133.98 C 122.03 125.80 128.52 118.36 136.34 116.49 M 139.30 128.38 C 135.10 129.42 133.90 134.24 134.00 138.02 C 134.09 179.35 134.01 220.68 134.03 262.01 C 134.09 265.10 134.44 268.91 137.36 270.69 C 138.99 271.88 141.07 271.97 143.01 271.99 C 161.33 271.91 179.65 272.00 197.97 271.95 C 200.82 272.06 203.83 270.73 205.11 268.05 C 206.56 264.57 206.00 260.61 205.89 256.93 C 205.62 252.29 201.73 248.32 197.06 248.10 C 189.38 247.78 181.68 248.09 173.99 247.97 C 164.56 248.39 156.71 239.18 158.00 229.95 C 158.06 213.32 158.01 196.68 158.01 180.04 C 157.72 171.84 164.75 164.20 173.00 164.07 C 180.70 163.87 188.40 164.15 196.10 163.99 C 199.11 163.85 202.48 162.92 204.19 160.23 C 206.65 156.64 205.90 152.10 206.00 148.01 C 205.88 143.36 206.26 138.69 205.81 134.05 C 204.98 128.32 196.84 125.98 192.71 129.70 C 190.44 132.81 189.97 137.26 186.70 139.58 C 179.87 140.63 172.87 139.71 165.98 140.03 C 161.76 139.91 157.48 140.48 153.32 139.68 C 149.75 137.56 149.15 133.09 147.17 129.78 C 145.21 127.64 141.90 127.74 139.30 128.38 M 182.56 191.56 C 180.69 195.32 183.72 200.11 187.95 199.90 C 193.71 199.76 199.82 200.84 205.38 199.33 C 206.66 195.97 206.21 192.00 205.52 188.52 C 200.76 187.44 195.80 188.21 190.96 187.98 C 187.91 187.92 183.65 188.01 182.56 191.56 Z" />
<path d="M 232.30 164.36 C 246.15 163.54 260.11 164.31 274.00 164.02 C 282.53 163.70 290.41 171.44 289.98 180.02 C 289.93 197.36 289.94 214.70 289.96 232.04 C 290.21 240.15 283.23 247.78 275.06 247.92 C 261.72 248.08 248.38 247.94 235.05 247.94 C 232.98 248.13 230.52 247.17 230.16 244.89 C 229.90 242.05 229.09 237.89 232.30 236.41 C 235.46 235.58 238.79 236.11 242.02 236.01 C 252.36 235.93 262.70 236.10 273.04 235.96 C 275.77 236.14 278.10 233.78 277.91 231.05 C 278.11 223.04 277.89 215.00 277.87 206.98 C 277.97 203.26 274.61 200.20 271.00 200.08 C 258.36 199.79 245.68 200.28 233.04 199.86 C 229.42 199.17 229.76 194.68 230.02 191.90 C 229.90 189.73 231.91 187.97 234.02 188.10 C 247.03 187.76 260.05 188.23 273.06 187.96 C 279.87 188.22 279.82 175.60 272.94 176.04 C 260.27 175.93 247.59 176.08 234.92 176.00 C 232.50 176.31 229.93 174.59 230.01 171.99 C 229.91 169.36 229.43 165.74 232.30 164.36 Z" />
<path d="M 247.31 212.33 C 250.08 211.26 252.88 213.65 255.65 212.64 C 257.30 212.33 259.03 211.65 260.69 212.32 C 265.16 213.56 266.27 220.75 262.03 223.01 C 259.43 224.96 256.26 222.98 253.37 223.46 C 250.52 223.65 246.73 225.12 244.78 222.20 C 241.78 219.16 243.18 213.51 247.31 212.33 Z" />
</g>
</svg>
